X:1
T:Psalm 114
L:1/4
M:14/4
I:linebreak $
K:D
V:1 treble nm="Pipe Organ" snm="Org."
V:1
 A2 A A F A G2 F2 E2 z2 |$[M:12/4] A2 B d c2 B2 A2 z2 |$[M:14/4] A2 A A F A G2 F2 E2 z2 |$ %3
w: Beef, aar- de, beef voor Ja- kobs God,|wees voor Hom skrik- ver- ras!|Hy wat die rots be- veel het en-|
[M:12/4] A2 B d c2 B2 A2 z2 |$[M:14/4] A2 d c B A G2 F2 E2 z2 |$[M:12/4] F2 G F E2 E2 D4 |] %6
w: dit word 'n wa- ter- plas;|'n spring- fon- tein het uit- ge- breek|waar eers ’n klip- steen was.|

